X:52
T: Sailing Into Walpole's Marsh
Z: Piano Box Version by Martin Fleischmann
H: Created 2013-02-19 /  Last Modified 2015-03-26
M: 4/4
L: 1/8
R: reel
K: Ador
A3A ABcA | EGGE GEDG | A3A ABcd | ecdB ccBc|
AGGG AGGG | GEDE GEDG | A3A ABcd | ecdB cAAA|
A3B c3A | EGGE GEDG | A3A ABcd | egdB cABc |
AGGG AGGG | GEDE GEDG | A3A ABcd | ecdB cAA2||
|: eggg eaaf| gedB cAAg| eggg eaa^g| agec d2cd |
eggg eaaf| gedB cAAB | c2gc acgc |1 eage d3 g:|2 eage d3c||

